X: 5393
T: Buddha's Delight, The
R: reel
M: 4/4
K: Bdorian
|:[M:4/4] efBe d2Bc|AeAd cAFB|BABc def2|[M:7/8] BdcA ~B3|
[M:4/4] efBe d2Bc|AeAd cAFB|BABd cAB2|[M:7/8] BAc B4:|
K: Ador
|:[M:4/4] deeA c2Ae|GdGc BGEA|AGAB cde2|[M:7/8] AcBG ~A3|
[M:4/4] deeA c2Ae|GdGc BGEA|AGAc BGA2|[M:7/8] AGB A4:|
K: Bmin
|:[M:4/4] fBbB gfde|AaAd cAFB|BABc def2|[M:7/8] BdcA ~B3|
fBbB gfde|AaAd cAFB|BABd cAB2|[M:7/8] BAc B4:|

